X:51
T:The copperplate
R:Reel
B:The Irish Fiddle Book
S:Richard Darsie's web page
Z:Transcription, chords:Mike Long
M:C|
L:1/8
K:G
"Am"~A2 EA cA~A2|aged cAFA|"G"~G2 DG BGBd|\
"Em"gedc "(G)"BG~G2|"Am"~A2 EA cA ~A2|aged cAGB|
ABcd efgb|"G"aged "Am"cA ~A2:|\
|:"Am"agea agbg|aged cA~A2|"Am"agef "G"gbaf|
"Em"gedc "(G)"BG~G2|"Am"agea agbg|\
aged cAGB|ABcd efgb|"G"aged "Am"cA ~A2:|
